X: 4
T:Kesh Jig [1]
L:1/8
M:6/8
K:G
D|G3 GAB|ABA ABd|edd gdd|edB dBA|
G3 GAB|ABA ABd|ede gdB|AGF G2:|
|:A|B3 dBd|ege dBG|BAB dBG|A3 AGA|
BAB dBd|ege dBd|g3 aga|bgf g2:|]
~
